img/icon-instagram-black.svg

<svg width="128" height="128" viewBox="0 0 128 128" fill="none" xmlns="http://www.w3.org/2000/svg">
<path fill-rule="evenodd" clip-rule="evenodd" d="M62.4744 2.27174C47.5842 2.27174 45.4943 2.40676 39.3554 2.6768C32.9552 2.94685 28.6449 4.02701 24.857 5.51225C20.9386 7.1325 17.5425 9.15782 14.2772 12.6684C11.0118 16.0439 8.92189 19.5544 7.3545 23.6051C5.91772 27.5207 4.87283 31.9764 4.6116 38.5924C4.35037 45.2085 4.21973 47.2338 4.21973 63.9764C4.21973 80.719 4.35037 82.8793 4.6116 89.3603C4.87283 95.9764 5.91772 100.432 7.3545 104.348C8.92189 108.398 10.8811 111.909 14.2772 115.284C17.5425 118.66 20.9386 120.82 24.857 122.441C28.6449 123.926 32.9552 125.006 39.3554 125.276C45.7555 125.546 47.7148 125.681 63.9111 125.681C80.1075 125.681 82.1973 125.546 88.4669 125.276C94.867 125.006 99.1774 123.926 102.965 122.441C106.884 120.82 110.28 118.795 113.545 115.284C116.811 111.909 118.9 108.398 120.468 104.348C121.905 100.432 122.949 95.9764 123.211 89.3603C123.472 83.0144 123.603 80.854 123.603 65.4616V62.3561C123.603 46.9637 123.472 44.8034 123.211 38.4574C122.949 31.8414 121.905 27.3857 120.468 23.4701C118.9 19.4194 116.941 15.9089 113.545 12.5333C110.28 9.15782 106.884 6.99748 102.965 5.37723C99.1774 3.89199 94.867 2.81182 88.4669 2.54178C82.3279 2.27174 80.2381 2.13672 65.3479 2.13672H62.4744V2.27174ZM102.965 31.0312C102.965 35.0819 99.6998 38.4574 95.7814 38.4574C91.8629 38.4574 88.5975 35.2169 88.5975 31.0312C88.5975 26.9806 91.8629 23.6051 95.7814 23.6051C99.6998 23.6051 102.965 26.9806 102.965 31.0312ZM63.9111 84.6346C52.9394 84.6346 44.0575 75.4532 44.0575 64.1114C44.0575 52.7696 52.9394 43.5882 63.9111 43.5882C74.8829 43.5882 83.7647 52.7696 83.7647 64.1114C83.7647 75.4532 74.8829 84.6346 63.9111 84.6346ZM63.9111 32.3814C80.8912 32.3814 94.6058 46.5587 94.6058 64.1114C94.6058 81.6642 80.8912 95.8414 63.9111 95.8414C46.9311 95.8414 33.2164 81.6642 33.2164 64.1114C33.2164 46.5587 46.9311 32.3814 63.9111 32.3814ZM63.9111 13.4785C79.8463 13.4785 81.6749 13.4785 88.075 13.8836C93.9528 14.1536 97.0875 15.0987 99.1774 16.0439C101.92 17.1241 104.01 18.4743 106.1 20.6346C108.19 22.7949 109.496 24.8203 110.541 27.7907C111.325 29.9511 112.37 33.1916 112.631 39.2675C112.892 45.7485 113.023 47.7739 113.023 64.2464C113.023 80.719 113.023 82.6093 112.631 89.2253C112.37 95.3013 111.455 98.5418 110.541 100.702C109.496 103.538 108.19 105.698 106.1 107.858C104.01 110.019 102.051 111.369 99.1774 112.449C97.0875 113.259 93.9528 114.339 88.075 114.609C81.8055 114.879 79.8463 115.014 63.9111 115.014C47.976 115.014 46.1474 115.014 39.7472 114.609C33.8695 114.339 30.7347 113.394 28.6449 112.449C25.902 111.369 23.8121 110.019 21.7222 107.858C19.6324 105.698 18.3262 103.673 17.2813 100.702C16.4976 98.5418 15.4527 95.3013 15.1914 89.2253C14.9302 82.7443 14.7996 80.719 14.7996 64.2464C14.7996 47.7739 14.7996 45.8836 15.1914 39.2675C15.4527 33.1916 16.367 29.9511 17.2813 27.7907C18.3262 24.9553 19.6324 22.7949 21.7222 20.6346C23.8121 18.4743 25.7713 17.1241 28.6449 16.0439C30.7347 15.2338 33.8695 14.1536 39.7472 13.8836C46.1474 13.4785 47.976 13.4785 63.9111 13.4785Z" fill="#000001"/>
</svg>

<svg width="128" height="128" fill="none" xmlns="http://www.w3.org/2000/svg"><path fill-rule="evenodd" clip-rule="evenodd" d="M62.474 2.272c-14.89 0-16.98.135-23.119.405-6.4.27-10.71 1.35-14.498 2.835-3.918 1.62-7.314 3.646-10.58 7.156-3.265 3.376-5.355 6.886-6.922 10.937-1.437 3.916-2.482 8.371-2.743 14.987-.262 6.617-.392 8.642-.392 25.384 0 16.743.13 18.903.392 25.384.26 6.616 1.306 11.072 2.742 14.988 1.568 4.05 3.527 7.561 6.923 10.936 3.266 3.376 6.662 5.536 10.58 7.157 3.788 1.485 8.098 2.565 14.498 2.835 6.4.27 8.36.405 24.556.405 16.197 0 18.286-.135 24.556-.405 6.4-.27 10.71-1.35 14.498-2.835 3.919-1.621 7.315-3.646 10.58-7.157 3.266-3.375 5.355-6.886 6.923-10.936 1.437-3.916 2.481-8.372 2.743-14.988.261-6.346.392-8.506.392-23.898v-3.106c0-15.392-.131-17.553-.392-23.899-.262-6.616-1.306-11.071-2.743-14.987-1.568-4.05-3.527-7.561-6.923-10.937-3.265-3.375-6.661-5.536-10.58-7.156-3.788-1.485-8.098-2.565-14.498-2.835-6.14-.27-8.229-.405-23.12-.405h-2.873v.135zm40.491 28.76c0 4.05-3.265 7.425-7.184 7.425-3.918 0-7.184-3.24-7.184-7.426 0-4.05 3.266-7.426 7.184-7.426 3.919 0 7.184 3.376 7.184 7.426zM63.911 84.634c-10.972 0-19.854-9.182-19.854-20.524 0-11.341 8.882-20.523 19.854-20.523s19.854 9.182 19.854 20.523c0 11.342-8.882 20.524-19.854 20.524zm0-52.254c16.98 0 30.695 14.178 30.695 31.73 0 17.553-13.715 31.73-30.695 31.73s-30.695-14.177-30.695-31.73c0-17.552 13.715-31.73 30.695-31.73zm0-18.902c15.935 0 17.764 0 24.164.405 5.878.27 9.013 1.215 11.102 2.16 2.743 1.08 4.833 2.43 6.923 4.59 2.09 2.16 3.396 4.186 4.441 7.157.784 2.16 1.829 5.4 2.09 11.476.261 6.481.392 8.507.392 24.98 0 16.472 0 18.362-.392 24.978-.261 6.076-1.176 9.317-2.09 11.477-1.045 2.836-2.351 4.996-4.441 7.156-2.09 2.161-4.049 3.511-6.923 4.591-2.09.81-5.224 1.89-11.102 2.16-6.27.27-8.229.405-24.164.405-15.935 0-17.764 0-24.164-.405-5.877-.27-9.012-1.215-11.102-2.16-2.743-1.08-4.833-2.43-6.923-4.591-2.09-2.16-3.396-4.185-4.44-7.156-.784-2.16-1.83-5.4-2.09-11.477-.262-6.48-.392-8.506-.392-24.979 0-16.472 0-18.362.391-24.978.262-6.076 1.176-9.317 2.09-11.477 1.045-2.836 2.351-4.996 4.441-7.156 2.09-2.16 4.05-3.51 6.923-4.591 2.09-.81 5.225-1.89 11.102-2.16 6.4-.405 8.229-.405 24.164-.405z" fill="#000001"/></svg>
